src/topics/icons/mailgun.svg

<svg height="256" preserveAspectRatio="xMidYMid" viewBox="0 0 256 256" width="256" xmlns="http://www.w3.org/2000/svg"><path d="m127.997895 105.847663c12.238299 0 22.156847 9.917346 22.156847 22.151736 0 12.236795-9.918548 22.155343-22.156847 22.155343-12.234089 0-22.152637-9.921254-22.152637-22.155343 0-12.23439 9.918548-22.151736 22.152637-22.151736zm-75.4849434 22.151736c0-41.6908585 33.7955889-75.4852447 75.4849434-75.4852447 41.694767 0 75.487951 33.7943862 75.487951 75.4852447 0 2.759645-.147334 5.482007-.435386 8.159868-.573397 7.358554 4.826825 12.975266 12.138473 12.975266 12.409085 0 13.731478-15.999812 13.731478-21.135134 0-55.7398553-45.183864-100.9225164-100.922516-100.9225164s-100.9210124 45.1826611-100.9210124 100.9225164c0 55.735946 45.1823604 100.91981 100.9210124 100.91981 29.601397 0 56.226356-12.737429 74.68784-33.035469l20.747557 17.422031c-23.435641 26.197693-57.510262 42.698138-95.435397 42.698138-70.6914945 0-127.997895-57.311813-127.997895-128.00451 0-70.6929985 57.3064005-127.999399 127.997895-127.999399 70.695704 0 128.002105 57.3064005 128.002105 127.999399 0 28.415813-13.530924 51.490337-40.70643 51.490337-11.960169 0-19.229422-5.479903-23.199908-11.595745-13.329769 21.368463-37.04805 35.595764-64.095767 35.595764-41.6893545 0-75.4849434-33.801002-75.4849434-75.490356zm75.4849434-48.4095648c-26.733806 0-48.4092635 21.6718498-48.4092635 48.4095648 0 26.736512 21.6754575 48.41197 48.4092635 48.41197 26.736512 0 48.413474-21.675458 48.413474-48.41197 0-26.737715-21.676962-48.4095648-48.413474-48.4095648z" fill="#af252a"/></svg>

<?xml version="1.0" encoding="UTF-8" standalone="no"?>
<svg width="256px" height="256px" viewBox="0 0 256 256" version="1.1" xmlns="http://www.w3.org/2000/svg" xmlns:xlink="http://www.w3.org/1999/xlink" preserveAspectRatio="xMidYMid">
    <g>
        <path d="M127.997895,105.847663 C140.236194,105.847663 150.154742,115.765009 150.154742,127.999399 C150.154742,140.236194 140.236194,150.154742 127.997895,150.154742 C115.763806,150.154742 105.845258,140.233488 105.845258,127.999399 C105.845258,115.765009 115.763806,105.847663 127.997895,105.847663 L127.997895,105.847663 Z M52.5129516,127.999399 C52.5129516,86.3085405 86.3085405,52.5141543 127.997895,52.5141543 C169.692662,52.5141543 203.485846,86.3085405 203.485846,127.999399 C203.485846,130.759044 203.338512,133.481406 203.05046,136.159267 C202.477063,143.517821 207.877285,149.134533 215.188933,149.134533 C227.598018,149.134533 228.920411,133.134721 228.920411,127.999399 C228.920411,72.2595437 183.736547,27.0768826 127.997895,27.0768826 C72.259243,27.0768826 27.0768826,72.2595437 27.0768826,127.999399 C27.0768826,183.735345 72.259243,228.919209 127.997895,228.919209 C157.599292,228.919209 184.224251,216.18178 202.685735,195.88374 L223.433292,213.305771 C199.997651,239.503464 165.92303,256.003909 127.997895,256.003909 C57.3064005,256.003909 0,198.692096 0,127.999399 C0,57.3064005 57.3064005,0 127.997895,0 C198.693599,0 256,57.3064005 256,127.999399 C256,156.415212 242.469076,179.489736 215.29357,179.489736 C203.333401,179.489736 196.064148,174.009833 192.093662,167.893991 C178.763893,189.262454 155.045612,203.489755 127.997895,203.489755 C86.3085405,203.489755 52.5129516,169.688753 52.5129516,127.999399 L52.5129516,127.999399 Z M127.997895,79.5898342 C101.264089,79.5898342 79.5886315,101.261684 79.5886315,127.999399 C79.5886315,154.735911 101.264089,176.411369 127.997895,176.411369 C154.734407,176.411369 176.411369,154.735911 176.411369,127.999399 C176.411369,101.261684 154.734407,79.5898342 127.997895,79.5898342 L127.997895,79.5898342 Z" fill="#AF252A"></path>
    </g>
</svg>
